X: 8
T:Lord Barnard's March. WCa.08
M:C|
L:1/8
Q:140
S:Wm. Calvert MS, 1812, Leyburn, Yorks.
R:March
O:England
A:North Yorkshire
Z:vmp.Chris Partington, May 2003
K:G
d/c/B/A/|G2G>A G2c/B/A/G/|A2A>BA2B>c|\
d>B d>B d>c B>A|!
G2G>AG2d/c/B/A/|\
G2G>A G>B A>G|F>G A>B c>d e>f|!
g>d B>G F2E2|D2D>DD2::\
D/E/F/G/|A>F c>A B>G d>B|!
A>F c>A B>G d>B|\
e3d c>B A>G|A2A>AA2d>c|!
B2d>BA2d>c|B/d/c/B/ c/B/A/G/A2B>c|\
d>B G>D E>A G>F|!
G>A B>c d>e f>g|d>B G>D E>A G>F|G2G>GG2:||
